X: 58
T: Premier Trio pour Piano, Violon et Violoncelle	 Op. 8
C: Fryderyk] [Chopin
%%abc-version 2.0
%%abcx-abcm2ps-target-version 5.9.1 (29 Sep 2008)
%%abc-creator hum2abc beta
%%abcx-conversion-date 2021/10/03 11:23:42
%%abc-edited-by Mateusz Mrugas
%%abc-edited-by Emilia Ziętek
%%abcx-initial-encoding-date 2019-10-24
%%humdrum-veritas 2103352003
%%humdrum-veritas-data 1464798903
%%linebreak <none>
%%barnumbers 0
L: 1/8
M: 3/4
N: Derived from 008-1c-KI-002-piano.krn
Q: "CON MOTO MA NON TROPPO."
%%staves {1 2}
V: 1 clef=treble
V: 2 clef=treble
K: G
[V:1] g2- [I:setbarnb 1]| 
[V:2] G2- | 
[V:1] g2!wedge!g'2!accent!f2 | 
[V:2] G2g2F2 | 
[V:1] ee'fe!accent!d2 | 
[V:2] EeFED2 | 
[V:1] cc'cdBc | 
[V:2] CcCDB,C[K:clef=bass] | 
[V:1] {/B}.A2.G2z2 | 
[V:2] {/B,}.A,2.G,2z2 | 
[V:1] B,G,E,CF,D | 
[V:2] G,,E,C,A,,D,D,, | 
[V:1] B,G,A,B,CD | 
[V:2] G,,B,,C,D,E,^F, | 
[V:1] B,CDBAG | 
[V:2] G,A,B,DCE | 
[V:1] FAd=FEB | 
[V:2] DCB,DCB, | 
[V:1] cA=FB^Ge | 
[V:2] A,=FDB,EE, | 
[V:1] cABcde | 
[V:2] A,CDE^F^G | 
[V:1] cdebae | 
[V:2] ABcBc^c | 
[V:1] fga^c'd'f | 
[V:2] defgfd[K:clef=treble] | 
[V:1] d'c'2b_ba- & e2_ed^c=c | 
[V:2] cAFGEF | 
[V:1] ag2^f=fe- & B2_BA^G=G | 
[V:2] GE^CDB,C[K:clef=bass] | 
[V:1] ed2^c=cB- & =F2E2^D=D | 
[V:2] D_B,^G,A,F,G, | 
[V:1] BA2G^FG & C2B,2[_EC]D | 
[V:2] A,=F,^D,E,A,,B,, | 
[V:1] E4_E2 & [G6C6G,6] | 
[V:2] C,6 | 
[V:1] [G6D6B,6G,6] | 
[V:2] G,,6 | 
[V:1] d4c2 & [G6E6] | 
[V:2] !trill!C,B,,C,D,E,F, | 
[V:1] c4B2 & [G6D6] | 
[V:2] G,A,CB,G,D, | 
[V:1] [B4D4]A2 & x4^DF | 
[V:2] G,,4B,,2 | 
[V:1] A2G4 & E6 | 
[V:2] E,4^C,2 | 
[V:1] [D2B,2]z2!accent![EC^F,]D |[1 
[V:2] D,2z2[D,2D,,2] | 
[V:1] [G2B,2G,2]z2 :|][2 
[V:2] G,,2G,,,2 :|]  
[V:1] [GB,G,]DGB!accent!d2- ]|: 
[V:2] G,,2z2D2- ]|:  
[V:1] d2!wedge!d'2c2- | 
[V:2] D2[K:clef=treble]!wedge!d2[K:clef=bass]C2- | 
[V:1] cB!trill!A^G!accent!A2 | 
[V:2] CB,!trill!A,^G,A,2 | 
[V:1] aAGgGA | 
[V:2] AA,G,GG,A, | 
[V:1] !wedge!F2!wedge!G2z2 | 
[V:2] !wedge![C2A,2D,2]!wedge![B,2G,2E,2]z2 | 
[V:1] !wedge![^g2^G2]!wedge![a2A2]z2 | 
[V:2] !wedge![D2B,2=F,2]!wedge![_E2C2^F,2]z2 | 
[V:1] [^a2^A2][bB]f^de | 
[V:2] !wedge![=E2^C2F,2]!wedge![^D2B,2]z2 | 
[V:1] f^gfe^cf | 
[V:2] [E2^A,2F,2][E2A,2F,2][E2A,2F,2] | 
[V:1] B2z2^DG | 
[V:2] [^D2^F,2B,,2]B,,,2B,E | 
[V:1] FAc^deg | 
[V:2] ^DCDFGE | 
[V:1] a^dfBge | 
[V:2] FB^D2EG | 
[V:1] AEA,E^A,E | 
[V:2] C2C,2C,2 | 
[V:1] G,B,^F,B, ^DG | 
[V:2] B,,2B,,,2B,E | 
[V:1] FAc^deg | 
[V:2] ^DCDFGE | 
[V:1] a^d^fBge | 
[V:2] ^DBD2EG | 
[V:1] EeEG,E,E- | 
[V:2] C2C,2[C,2C,,2] | 
[V:1] E^D2^CDC & x2^A,4 | 
[V:2] {/B,,,}F,2>E,2F,E, & B,,2F,,4 | 
[V:1] ^GF2E^D^C & B,2!accent!^A,4 | 
[V:2] [^D,2B,,2]^C,^G,F,E, & x2F,,4 | 
[V:1] B,F,B,^DFB | 
[V:2] ^D,B,,D,F,B,^D | 
[V:1] ^AF^cAe^d | 
[V:2] EF,^A,E^GF | 
[V:1] B2^Ae^d^c | 
[V:2] ^D2=G2FE & B,6 | 
[V:1] Bf2e^d^c & x2^A4 | 
[V:2] ^D zG2FE & B,6 | 
[V:1] BFB^dfb | 
[V:2] [^DB,]B,DFB^d[K:clef=treble] | 
[V:1] ^af^c'ae'^d' | 
[V:2] eF^Ae^gf | 
[V:1] b2!accent!^a^c'e'^d' | 
[V:2] x2^ce^gf & [^d2B2]F4 | 
[V:1] !accent!b^d' !accent!^a^c'e'd' | 
[V:2] ^df ^ce^gf & B2F4 | 
[V:1] b2!accent!^a^c'e'^d' | 
[V:2] x2^ce=gf & [^d2B2]F4 | 
[V:1] b^d' !accent!^a^c'e'=d' | 
[V:2] x2^cegf & [^d2B2]F4 | 
[V:1] bd' ^ab ab | 
[V:2] [d2B2]^cd cd | 
[V:1] ^d!wedge![ae] ^c!wedge![g=d] B!wedge![f=c] | 
[V:2] B!wedge!c ^A!wedge!B ^G!wedge!=A | 
[V:1] ^A.[eB] ^G.[d=A] F.[c=G] | 
[V:2] ^FG ^EF ^D=E[K:clef=bass] | 
[V:1] ^E[BF] ^D[A=E] ^C[G=D] | 
[V:2] ^CD B,=C ^A,B, | 
[V:1] [F2=C2][DA,][_EC] [DA,][EC] | 
[V:2] [A,2D,2]^F,G, F,G, | 
[V:1] !accent![DB,][^FC] [DA,][_EC] [DA,][EC] | 
[V:2] ^G,A, F,=G, F,G, | 
[V:1] !accent![DB,][^FC] [DA,][_EC] [DA,][EC] | 
[V:2] ^G,A, F,=G, F,G, | 
[V:1] !accent![DB,][^FC] [DA,][EC] [DA,]C | 
[V:2] ^G,A,F,D,E,F, | 
[V:1] B,G,E,CF,D | 
[V:2] G,E,C,A,,D,D,, | 
[V:1] B,G,A,B,CD | 
[V:2] G,,B,,C,D,E,^F, | 
[V:1] B,CDBAG | 
[V:2] G,A,B,DCE | 
[V:1] FAd=FEB | 
[V:2] DCB,DCB, | 
[V:1] cA=FB^Ge | 
[V:2] A,=FDB,EE, | 
[V:1] cABcde | 
[V:2] A,CDE^F^G | 
[V:1] cdebae | 
[V:2] ABcBc^c | 
[V:1] fga^c'd'f | 
[V:2] defgfd[K:clef=treble] | 
[V:1] d'c'2b_ba- & e2_ed^c=c | 
[V:2] cAFGEF | 
[V:1] ag2^f=fe & B2_BA^G=G | 
[V:2] GE^CDB,C[K:clef=bass] | 
[V:1] ed2^c=cB- & =F2E2^D=D | 
[V:2] D_B,^G,A,F,G, | 
[V:1] BA2G^FG & C2B,2[_EC]D | 
[V:2] A,=F,^D,E,A,,B,, | 
[V:1] E4_E2 & [G6C6G,6] | 
[V:2] C,6 | 
[V:1] [G6D6B,6G,6] | 
[V:2] G,,6 | 
[V:1] d4c2 & [G6E6] | 
[V:2] !trill!C,B,,C,D,E,F, | 
[V:1] c4B2 & [G6D6] | 
[V:2] G,A,CB,G,D, | 
[V:1] B4A2 & D4^DF | 
[V:2] G,,4B,,2 | 
[V:1] A2G4 & E6 | 
[V:2] E,4^C,2 | 
[V:1] [D2B,2]z2!accent![EC^F,]D |[1 
[V:2] D,2z2[D,2D,,2] | 
[V:1] [GB,G,]DGB!accent!d2 :|][2 
[V:2] G,,2z2D2 :|]  
[V:1] G2z2 |] 
[V:2] G,,2G,,,2 |]  
[V:1]  [K:C] [M:3/4]z2 [I:setbarnb 82]| 
[V:2]  [K:C] [M:3/4]z2 | 
[V:1] [F6D6] & B,2A,2G,2 | 
[V:2] G,,6 | 
[V:1] E2EEG,2 & x3E3 | 
[V:2] G,4x2 & [C,6C,,6] | 
[V:1] [F4D4G,4][F2D2G,2] | 
[V:2] G,,4G,,2 | 
[V:1] [E4C4G,4]G2 | 
[V:2] C,4z2 | 
[V:1] G>ee2d2 & G4[G2F2] | 
[V:2] z2z2G,2 | 
[V:1] [c4G4][B2-F2] & E xx4 | 
[V:2] G,>EE2D2 & G,6 | 
[V:1] B>AA2[G2D2] & E4x2 | 
[V:2] C4B,2 & G,6 | 
[V:1] !wedge![^F2D2C2]!wedge![G2D2B,2]z2 | 
[V:2] [A,2D,2][D,2G,,2]z2 | 
[V:1] A2A>AA2 & [=F4D4]x2 | 
[V:2] A,2A,>A,A,2 & D,2D,,2F,,2 | 
[V:1] !accent![A6E6C6A,6] | 
[V:2] [A,,6A,,,6] | 
[V:1] A4x2 & ^F2F>FF2 | 
[V:2] [D,6D,,6] | 
[V:1] !accent!A4G2 & =F6 | 
[V:2] G,,6 | 
[V:1] [E4C4G,4][F2B,2G,2] | 
[V:2] [C,6C,,6]- | 
[V:1] [E4C4G,4][^D2C2A,2] | 
[V:2] [C,6C,,6] | 
[V:1] [E4C4G,4][F2B,2G,2] | 
[V:2] [C,6C,,6]- | 
[V:1] [E2C2G,2]z2 :|]|:  
[V:2] [C,2C,,2]C,,2 :|]|:  
[V:1] EF [I:setbarnb 98]| 
[V:2] E,F, | 
[V:1] G2>_B2AB | 
[V:2] G,2>_B,2A,B, | 
[V:1] GE^C_B,G,A, | 
[V:2] G,E,^C,_B,,G,,A,, | 
[V:1] _B,2z _BAB | 
[V:2] _B,,2z _B,A,B, | 
[V:1] G2.[^c2_B2G2].[d2B2G2] | 
[V:2] G,2.[E2E,2].[D2D,2] | 
[V:1] [e2_B2G2]z _bab | 
[V:2] [^C2^C,2]z[K:clef=treble] _BAB | 
[V:1] ge^c_BGA | 
[V:2] GE^C[K:clef=bass]_B,G,A, | 
[V:1] _BGE^CG,A, | 
[V:2] _B,G,E,^C,G,,A,, | 
[V:1] _B,2z2!accent![^A,2E,2] | 
[V:2] _B,,2z2[=C,2=C,,2] | 
[V:1] [B,2^D,2]z cBc | 
[V:2] [B,,2B,,,2]z CB,C | 
[V:1] A^F^DCA,B, | 
[V:2] A,^F,^D,C,A,,B,, | 
[V:1] C2z cBc | 
[V:2] C,2z CB,C | 
[V:1] A2.[^d2A2^F2].[e2A2E2] | 
[V:2] A,2.[C2C,2].[C2C,2] | 
[V:1] .[^f2A2^D2]z c'bc' | 
[V:2] .[B,2B,,2]z[K:clef=treble] cBc | 
[V:1] a^f^dcAB | 
[V:2] A^F^DCA,B,[K:clef=bass] | 
[V:1] cA^F^DA,B, | 
[V:2] CA,^F,^D,A,,B,, | 
[V:1] C2z2[^F2^D2B,2A,2] | 
[V:2] C,2z2B,,2 | 
[V:1] [G2E2B,2G,2]!accent![BGE]B, !accent![B^F]A, | 
[V:2] B,,2>B,,,2^C,,^D,, | 
[V:1] [EG,]B,EGe2 | 
[V:2] E,,2>E,2D,C, | 
[V:1] B2!accent![bge]B !accent![b^f]A | 
[V:2] B,,2>B,,,2^C,,^D,, | 
[V:1] [eG]Bege'2 | 
[V:2] E,,2z2E,,F,, | 
[V:1] [g'4f'4d'4b4g4f4]z2 | 
[V:2] [G,,4G,,,4]z2 | 
[V:1] [B2G2F2][b2g2][b'2g'2] | 
[V:2] [D2G,2][f2d2G2][f'2d'2g2] | 
[V:1] !accent![F6D6B,6G,6]- | 
[V:2] [G,,6G,,,6]- | 
[V:1] [F6D6B,6G,6] | 
[V:2] [G,,6G,,,6] | 
[V:1] [F6D6] & B,2A,2G,2 | 
[V:2] G,,6 | 
[V:1] E2EEG,2 & x3E3 | 
[V:2] G,4x2 & [C,6C,,6] | 
[V:1] [F4D4B,4G,4][F2D2G,2] | 
[V:2] G,,4G,,2 | 
[V:1] [E4C4G,4]G2 | 
[V:2] C,4z2 | 
[V:1] G>ee2d2 & G4[G2F2] | 
[V:2] z2z2G,2 | 
[V:1] [c4G4][B2-F2] & E2x4 | 
[V:2] G,>EE2D2 & G,6 | 
[V:1] B>AA2G2 & E4D2 | 
[V:2] C4B,2 & G,6 | 
[V:1] [^F2D2C2][G2D2B,2]z2 | 
[V:2] [A,2D,2][D,2G,,2]z2 | 
[V:1] A2A>AA2 & [=F4D4]x2 | 
[V:2] A,2A,>A,A,2 & D,2D,,2F,,2 | 
[V:1] [A6E6C6A,6] | 
[V:2] [A,,6A,,,6] | 
[V:1] A4x2 & ^F2F>FF2 | 
[V:2] [D,6D,,6] | 
[V:1] !accent![A4=F4]G2 & C2B,4 | 
[V:2] G,,6 | 
[V:1] [E4C4G,4][F2B,2G,2] | 
[V:2] [C,6C,,6]- | 
[V:1] [E4C4G,4][^D2C2A,2] | 
[V:2] [C,6C,,6] | 
[V:1] [=E4C4G,4][F2B,2G,2] | 
[V:2] [C,6C,,6]- | 
[V:1] [E2C2G,2]z2 :|]  
[V:2] [C,2C,,2]C,,2 :|]
